X:229
T:Heave, My Boys, Away
M:C
L:1/8
Q:1/4=3D150
K:F
F2F2 F2GA|B2A2 G2F2|G3G  G2G2|D2 G4 C2|
FFF2 F2GA|B2A2 G2F2|G3G  G2D2|G6 A2|
B2A2 G2FF|E2F2 G2C2|B2AA G2FF|E2F2 G2C2|
A4   F2GA|B4   G2AB|A2GF G2F2|F8||
